symbols/be/PVO-{120}.svg

<?xml version="1.0" encoding="UTF-8" standalone="no"?>
<!-- Initially created with Inkscape, optimized by hand -->

<svg
   version="1.1"
   width="20"
   height="14.096813"
   id="svg1"
   xmlns="http://www.w3.org/2000/svg"
   xmlns:svg="http://www.w3.org/2000/svg">
  <defs
     id="defs1" />
  <rect
     x="0"
     y="0"
     width="20"
     height="14.096812"
     style="fill:#ffffff;stroke:none;stroke-width:0.0590319"
     id="Fond" />
  <circle
     cx="10"
     cy="7.0484047"
     r="5.8441563"
     style="fill:none;stroke:#000000;stroke-width:0.590319"
     id="circle1" />
  <path
     d="M 8.8458644,10.243541 V 3.8541876 c 0,-0.106667 -0.032,-0.192001 -0.106667,-0.266668 -0.064,-0.07467 -0.362668,-0.149333 -0.501335,-0.01067 l -1.429338,1.429338 c -0.149334,0.149333 -0.096,0.426668 0.01067,0.533335 0.096,0.106667 0.352001,0.128 0.490668,-0.01067 l 0.821336,-0.832003 v 5.5573514 c 0,0.192001 0.170667,0.352001 0.362668,0.352001 0.192001,0 0.352001,-0.16 0.352001,-0.362668 z m 4.4373366,0.01067 c 0,-0.192 -0.16,-0.3626684 -0.352001,-0.3626684 H 10.723193 L 13.0272,6.2221976 c 0.192001,-0.320001 0.256001,-0.576001 0.256001,-0.949336 0.02133,-1.06667 -0.789336,-1.738672 -1.770672,-1.781339 -0.778669,-0.02133 -1.312004,0.330668 -1.7280046,1.00267 -0.08533,0.149334 -0.128001,0.565335 0.2986666,0.597335 0.128001,0 0.234668,-0.04267 0.298668,-0.16 0.277334,-0.490669 0.533335,-0.736003 1.13067,-0.725336 0.736002,0.01067 1.056003,0.480002 1.06667,1.06667 0,0.224001 -0.032,0.352001 -0.149334,0.565335 L 9.7845244,10.040877 c -0.04267,0.07467 -0.05333,0.128001 -0.05333,0.213334 0.01067,0.192001 0.160001,0.341335 0.3520006,0.352001 h 2.848009 c 0.192001,0 0.352001,-0.16 0.352001,-0.352001 z"
     id="text1"
     style="font-size:10.6667px;font-family:Isonorm;-inkscape-font-specification:'Isonorm, Normal';fill-rule:evenodd;stroke-width:0.0944511"
     aria-label="12" />
</svg>

<?xml version="1.0" encoding="UTF-8"?>
<svg xmlns="http://www.w3.org/2000/svg" xmlns:xlink="http://www.w3.org/1999/xlink" width="20" height="14.096813" viewBox="0 0 20 14.096813">
<path fill-rule="nonzero" fill="rgb(100%, 100%, 100%)" fill-opacity="1" d="M 0 0 L 20 0 L 20 14.097656 L 0 14.097656 Z M 0 0 "/>
<path fill="none" stroke-width="0.590319" stroke-linecap="butt" stroke-linejoin="miter" stroke="rgb(0%, 0%, 0%)" stroke-opacity="1" stroke-miterlimit="4" d="M 15.84375 7.046875 C 15.84375 10.277344 13.226562 12.890625 10 12.890625 C 6.773438 12.890625 4.15625 10.277344 4.15625 7.046875 C 4.15625 3.820312 6.773438 1.203125 10 1.203125 C 13.226562 1.203125 15.84375 3.820312 15.84375 7.046875 Z M 15.84375 7.046875 "/>
<path fill-rule="evenodd" fill="rgb(0%, 0%, 0%)" fill-opacity="1" d="M 8.847656 10.242188 L 8.847656 3.855469 C 8.847656 3.746094 8.8125 3.664062 8.738281 3.585938 C 8.675781 3.511719 8.375 3.4375 8.238281 3.578125 L 6.808594 5.007812 C 6.660156 5.15625 6.710938 5.433594 6.820312 5.539062 C 6.914062 5.644531 7.171875 5.667969 7.308594 5.527344 L 8.132812 4.695312 L 8.132812 10.253906 C 8.132812 10.445312 8.300781 10.605469 8.492188 10.605469 C 8.6875 10.605469 8.847656 10.445312 8.847656 10.242188 Z M 13.28125 10.253906 C 13.28125 10.0625 13.125 9.890625 12.929688 9.890625 L 10.722656 9.890625 L 13.027344 6.222656 C 13.21875 5.902344 13.28125 5.644531 13.28125 5.273438 C 13.304688 4.207031 12.492188 3.535156 11.511719 3.492188 C 10.734375 3.46875 10.199219 3.820312 9.785156 4.496094 C 9.699219 4.644531 9.65625 5.058594 10.082031 5.089844 C 10.210938 5.089844 10.316406 5.050781 10.382812 4.929688 C 10.660156 4.441406 10.914062 4.195312 11.511719 4.207031 C 12.25 4.21875 12.570312 4.6875 12.578125 5.273438 C 12.578125 5.496094 12.546875 5.625 12.429688 5.839844 L 9.785156 10.039062 C 9.742188 10.117188 9.730469 10.167969 9.730469 10.253906 C 9.742188 10.445312 9.890625 10.59375 10.082031 10.605469 L 12.929688 10.605469 C 13.125 10.605469 13.285156 10.445312 13.285156 10.253906 Z M 13.28125 10.253906 "/>
</svg>
